X:1
T:Capricio 2 G-Dur
T:Capriccio 2 G-Dur
T:G. Gevasini
C:G. Gevasini
L:1/8
M:4/4
K:G
V:1 bass nm="Posaune" snm="Psn."
V:1
"^Preludio :""^Allegro" .G,,.A,,/.B,,/ .C,/.D,/.E,/.F,/ .G,.A,/.B,/ .C/.D/.E/.F/ | %1
 .G.F/.E/ .D/.C/.B,/.A,/ .G,.F,/.E,/ .D,/.C,/.B,,/.A,,/ | %2
"^(sic!)" .G,,(A,,/G,,/) .B,,.D, .G,/.B,/.D/.G/ | G,,4 z4 | %4
[M:4/4]"^Esercizio :""^Moderato"!p! z[Q:1/4=104] (D,^C,D,) (!>!A,G,) (!>!CB,) | (ED^CD GDB,G,) | %6
 .F,(D,^C,D,) (!>!G,F,) (!>!B,A,) | (E!>(!D^CD FE=CA,)!>)! | %8
"_cresc." .G,(C/B,/) (B,/A,/)!<(!(A,/G,/) .F,(D/C/) (C/B,/)(B,/A,/) | %9
 .^G,(E/D/) (D/C/)(C/B,/) .A,(F/E/) (E/D/)!<)!(D/C/) | B,GDB, G,D,B,,G,, | F,,A,,D,F, A,CDF | %12
 GD/B,/ G,D,/B,,/ G,,2 z2 ||[M:4/4]"^Capriccio :""^Allegro Moderato"[Q:1/4=114] (D,2 | %14
 B,2) (C>B, D2) (!>!E>D) |!<(! (G,2 A,2 B,2)!<)! (A,>G,) | F,2 (!>!E>D) F,2 (!>!E>D) | %17
 (!>!D/E/F/G/) (!>!B,/C/^C/)D/ G,2 D,2 | !>!B,2 (C>B, !>!D2) (E>D) | %19
!<(! (G,2 A,2 B,)!>!B,!<)!"_sten."!>!B,!>!B, | .A,(FED) (!>!D/^C/)(!>!^G,/A,/) !>!C/(B,/=G,/E,/) | %21
"^a tempo" (D,3 F,/E,/) D,2 z D, | !>!C2 (B,>A,) !>!A,2 (G,>F,) | (A,G,)!<(! (B,E) D2!<)! z D, | %24
 !>!C2 (B,>A,) !>!A,2 (G,>F,) | (A,G, !>!GE D2) z D, | B,2 (^A,>B,!<(! C2) (B,>C!<)! | %27
 D2) !>!=F2- (3(F.E.D)!>(! (3(.C.B,.A,)!>)! | G,2 (B,>E D)D, (B,>A,) || %29
"^Brilante"[Q:1/4=126] (3.G,.B,,.D, (3.G,.B,.E (3.D.B,,.D, (3.G,.B,.E | %30
 (3.D!<(!.B,,.D, (3.G,.A,.^A, (3.B,.C.^C (3.D!<)!.B,.G, | %31
 (3.F,!<(!(^C,D,) (3.A,(C,D,) (3.=C(^C,D,) (3.D!<)!(C,D,) | %32
 (3.F!>(!.E.D (3.C.B,.A, (3.G,.F,.E,!>)! (3.D,.C,.A,, | %33
 (3.G,,.B,,.D, (3.G,.B,.E (3.D.B,,.D, (3.G,.B,.E | %34
 (3.D!<(!.B,,.D, (3.G,.A,.^A, (3.B,.C.^C (3.D!<)!.B,.G, | %35
 (3.F,!<(!(^C,D,) (3.A,(C,D,) (3.=C(^C,D,) (3.D!<)!(C,D,) | %36
 (3.F!>(!.E.D (3.C.B,.A, (3.G,.F,.E,!>)! (3.D,.C,.A,, | %37
 (3.G,,._B,,.D, (3.G,._B,._E (3.D.B,,.D, (3.G,.B,.E | %38
 (3.D._B,,.D,!<(! (3.G,.A,._B, (3.C.^C.D (3(E!<)!D).B, | %39
 (3.A,!<(!(E,=F,) (3.C(E,F,) (3._E(=E,F,) (3.=F!<)!(E,F,) | %40
!>(! (3.A.G.=F (3._E.D.C (3._B,.A,.G, (3.=F,!>)!._E,.C, | %41
 (3._B,,.D,!<(!.=F, (3._B,.D.G!<)! (3.=F.D,!<(!.F, (3.B,.D!<)!.G | %42
 (3.=F.D,.=F, (3._B,.C.^C (3.D._E.=E (3.F.D.^G, | %43
 (3.A,.E,.A, (3.^C.A,.E (3.D.B,.^G, (3.=F,.D,.^G,, | %44
 (3.A,,.^C,.E, (3.A,.^C.E (3.D.^G,.B, (3.D,.=F,.^G,, | %45
!<(! (3.A,,.^A,,.B,, (3.C,.^C,.D, (3.^D,.E,.^E, (3.F,.G,.^G,!<)! || %46
"^I. Tempo"[Q:1/4=114] (A,4 F,2) .D2 |!>(! (^C3 E!>)! G,4) | (G,4 E,2) .B,2 | %49
!>(! (A,3 D F,2)!>)! z2 | (A,4 F,2) .D2 |!>(! (^C3 ^B,!>)! C4) | (B,4 ^G,2 ^C2) | F,6 z2 | %54
 (G,4 E,2 ^C,2) |!<(! (D,F,A,D!<)!!>(! FDA,F,)!>)! | (G,4 E,2 ^C,2) | %57
!<(! (D,F,A,D!<)!!>(! FDA,F,)!>)! | (=C,4 D,2 C,2) | B,, !>!D,2 !>!G,2 !>!B,2 D | %60
 .A,!>!F!>!D!>!B,"_sten." .A,/.B,/.G,/.A,/ .F,/.G,/.E,/.A,/ |"_rall." D,2 (^C,D, E,F,G,A,) | %62
"^a tempo" .B,2 (^A,/B,/C/B,/) .D2 (^C/D/E/D/) | G,!<(!(F,/G,/) A,!<)!(G,/A,/) B,2 (A,>G,) | %64
 F,2 (E/D/^C/D/) F,2 (E/D/C/D/) | (G,/A,/!<(!B,/C/ D/E/F/G/!<)! G,)z/!<(!D,/ (E,/F,/G,/A,/)!<)! | %66
 .B,(C/B,/ ^A,/B,/C/B,/) D(E/D/ ^C/D/E/D/) | G,(F,/G,/ A,)(G,/A,/ B,)"_sten."!>!B,!>!B,!>!B, | %68
"^a tempo" (A,/^G,/).A,/.B,/ (^C/D/).E/.F/ (G/E/)(C/A,/) (=G,/E,/)(^C,/A,,/) | %69
 (D,/E,/).F,/.G,/ .A,/.B,/.^C/.D/ D,2 z D, | C2 (!>!B,>A,) A,2 (!>!G,>F,) | %71
 (A,G,) (B,E) D.D,/.E,/ .F,/.G,/.A,/.B,/ | .C2 (D/C/B,/A,/) .A,2 (B,/A,/G,/F,/) | %73
 (A,/G,/)(C/B,/) (E/D/)(G/E/) D2 z D, | B,2 (D,/G,/B,/D/) C2 (F,/A,/C/E/) | %75
 D(B,/D/) =F2- (3F.E.D (3.C.B,.A, | G,.G,,/.B,,/ .D,/.G,/.B,/.E/ D.F,,/.A,,/ .D,/.F,/.B,/.A,/ || %77
"^Piu mosso"[Q:1/4=120] .G,.B,/.B,/ .D.B,/.B,/ .G,.B,/.B,/ .D.B,/.B,/ | %78
 .A,(F/E/) (E/D/C/B,/ A,).D/.C/ .B,/.A,/.G,/.F,/ | .G,.B,/.B,/ .D.B,/.B,/ .G,.B,/.B,/ .D.B,/.B,/ | %80
 .A,(F/E/) (E/D/C/B,/ A,)(D/C/)!>(! .B,/.A,/.G,/.F,/!>)! | %81
 .G,.B,/.B,/ .^D.B,/.B,/ .E.E,/.F,/!<(! .^G,/.A,/.B,/.E,/!<)! | %82
 .A,.A,/.A,/ .^C.A,/.A,/ .D.D,/.E,/!<(! .F,/.G,/.A,/.D,/!<)! | .G,(B,/E/) .D.D, .C,(C/F/) .E.E, | %84
 .D,(B,/E/) .D.B,, .A,,(A,/D/) .C.A,, | z/ (B,,/!<(!D,/G,/) .B,!<)!.D z/ (C,/!<(!E,/A,/) .C!<)!.E | %86
 z/ (B,,/!<(!D,/G,/) .B,!<)!.D z/ (A,,/!<(!D,/F,/) .A,!<)!.C | ._B,.G.E.^C .B,.G,.E,.^C, | %88
 .D,/.G,,/.A,,/.B,,/!<(! .C,/.D,/.E,/.F,/ .G,/.A,/.B,/.C/ .D/.E/!<)!.F/.G/ | %89
 .D !>!D2 !>!D2 !>!D2 .D | .F !>!F2 !>!F2 !>!F2 .F | %91
!>(! .G.D/.B,/!>)! (G,/D,/).B,,/.G,,/ (F,,/A,,/).D,/.F,/!<(! (A,/C/).D/.F/!<)! | %92
!>(! .G.D/.B,/!>)! (G,/D,/).B,,/.G,,/ (F,,/A,,/)!<(!.D,/.F,/ (A,/C/).D/.F/!<)! | %93
 Gz/(B,/ D)z/(G,/ B,)z/(D,/ G,) z/ (B,,/ | D,) G,,B,,D,!<(! G,B,DG!<)! | G,,6 z2 |] %96

